public/illustration/playstore.svg

<svg width="270" height="80" viewBox="0 0 270 80" fill="none" xmlns="http://www.w3.org/2000/svg">
<g clip-path="url(#clip0_468_13864)">
<path fill-rule="evenodd" clip-rule="evenodd" d="M259.996 80H10.0037C4.49023 80 0 75.4913 0 70V10C0 4.48878 4.49023 0 10.0037 0H259.996C265.505 0 270 4.48878 270 10V70C270 75.4913 265.505 80 259.996 80Z" fill="black"/>
<path fill-rule="evenodd" clip-rule="evenodd" d="M259.996 1.601C264.621 1.601 268.406 5.37656 268.406 10V70C268.406 74.6234 264.646 78.399 259.996 78.399H10.0037C5.37934 78.399 1.59443 74.6234 1.59443 70V10C1.59443 5.37656 5.3545 1.601 10.0037 1.601H259.996ZM259.996 0H10.0037C4.49023 0 0 4.50873 0 10V70C0 75.5112 4.49023 80 10.0037 80H259.996C265.505 80 270 75.5112 270 70V10C270 4.50873 265.505 0 259.996 0Z" fill="#A6A6A6"/>
<path d="M142.237 26.4639C140.434 26.4639 138.914 25.8305 137.712 24.5836C136.52 23.3716 135.854 21.7008 135.884 19.9951C135.884 18.1746 136.5 16.6335 137.712 15.4115C138.909 14.1647 140.429 13.5312 142.232 13.5312C144.015 13.5312 145.535 14.1647 146.757 15.4115C147.969 16.6734 148.584 18.2145 148.584 19.9951C148.565 21.8205 147.949 23.3617 146.757 24.5786C145.56 25.8355 144.04 26.4639 142.237 26.4639ZM88.5876 26.4639C86.8243 26.4639 85.2944 25.8405 84.0427 24.6086C82.801 23.3816 82.1702 21.8305 82.1702 20.0001C82.1702 18.1697 82.801 16.6185 84.0427 15.3916C85.2696 14.1597 86.7994 13.5362 88.5876 13.5362C89.4618 13.5362 90.3111 13.7108 91.1257 14.0649C91.9254 14.4091 92.5761 14.8779 93.0579 15.4514L93.1771 15.5961L91.8311 16.9228L91.692 16.7582C90.932 15.8505 89.9138 15.4066 88.5677 15.4066C87.3657 15.4066 86.3176 15.8355 85.4534 16.6834C84.5841 17.5362 84.1421 18.6534 84.1421 20.0051C84.1421 21.3567 84.5841 22.4739 85.4534 23.3268C86.3176 24.1746 87.3657 24.6036 88.5677 24.6036C89.8492 24.6036 90.9271 24.1746 91.7665 23.3268C92.2632 22.828 92.5711 22.1298 92.6804 21.247H88.3641V19.3816H94.5331L94.558 19.5512C94.6027 19.8654 94.6474 20.1896 94.6474 20.4889C94.6474 22.2096 94.1308 23.6011 93.1076 24.6285C91.9453 25.8455 90.4254 26.4639 88.5876 26.4639ZM159.919 26.1996H158.017L152.191 16.838L152.24 18.5238V26.1946H150.338V13.8006H152.508L152.568 13.8953L158.047 22.7133L157.997 21.0325V13.8006H159.919V26.1996ZM127.941 26.1996H126.014V15.6659H122.671V13.8006H131.279V15.6659H127.936V26.1996H127.941ZM121.102 26.1996H119.18V13.8006H121.102V26.1996ZM110.299 26.1996H108.376V15.6659H105.033V13.8006H113.641V15.6659H110.299V26.1996ZM103.817 26.1796H96.4454V13.8006H103.817V15.6659H98.3726V19.0674H103.285V20.9128H98.3726V24.3143H103.817V26.1796ZM139.122 23.3018C139.982 24.1647 141.025 24.5986 142.237 24.5986C143.483 24.5986 144.502 24.1746 145.351 23.3018C146.195 22.4539 146.622 21.3417 146.622 20.0001C146.622 18.6584 146.195 17.5412 145.356 16.6983C144.497 15.8355 143.449 15.4016 142.242 15.4016C140.995 15.4016 139.977 15.8255 139.132 16.6983C138.288 17.5462 137.861 18.6584 137.861 20.0001C137.861 21.3417 138.283 22.4589 139.122 23.3018Z" fill="white"/>
<path fill-rule="evenodd" clip-rule="evenodd" d="M135.705 43.5108C131.011 43.5108 127.206 47.0869 127.206 52.0196C127.206 56.9073 131.036 60.5283 135.705 60.5283C140.399 60.5283 144.204 56.9273 144.204 52.0196C144.204 47.0869 140.399 43.5108 135.705 43.5108ZM135.705 57.1567C133.137 57.1567 130.927 55.0221 130.927 51.9996C130.927 48.9323 133.142 46.8425 135.705 46.8425C138.273 46.8425 140.483 48.9323 140.483 51.9996C140.488 55.042 138.273 57.1567 135.705 57.1567ZM117.163 43.5108C112.469 43.5108 108.664 47.0869 108.664 52.0196C108.664 56.9073 112.494 60.5283 117.163 60.5283C121.857 60.5283 125.662 56.9273 125.662 52.0196C125.662 47.0869 121.852 43.5108 117.163 43.5108ZM117.163 57.1567C114.595 57.1567 112.385 55.0221 112.385 51.9996C112.385 48.9323 114.6 46.8425 117.163 46.8425C119.731 46.8425 121.941 48.9323 121.941 51.9996C121.941 55.042 119.731 57.1567 117.163 57.1567ZM95.0993 46.1093V49.7103H103.707C103.444 51.7303 102.778 53.2216 101.76 54.244C100.498 55.5108 98.5514 56.8874 95.1192 56.8874C89.8292 56.8874 85.6916 52.5981 85.6916 47.2864C85.6916 41.9747 89.8292 37.6854 95.1192 37.6854C97.9752 37.6854 100.056 38.8176 101.601 40.264L104.144 37.7103C101.999 35.6455 99.1425 34.0645 95.139 34.0645C87.8821 34.0645 81.7925 39.9996 81.7925 47.2664C81.7925 54.5532 87.8772 60.4684 95.139 60.4684C99.058 60.4684 101.999 59.1817 104.323 56.7577C106.692 54.3787 107.442 51.0221 107.442 48.3138C107.442 47.4709 107.378 46.7128 107.244 46.0694H95.0943C95.0993 46.0645 95.0993 46.1093 95.0993 46.1093ZM185.346 48.9123C184.636 47.0021 182.49 43.4909 178.089 43.4909C173.728 43.4909 170.102 46.9373 170.102 51.9996C170.102 56.7777 173.688 60.5083 178.511 60.5083C182.386 60.5083 184.641 58.1293 185.57 56.7328L182.694 54.7976C181.74 56.2191 180.414 57.1517 178.531 57.1517C176.629 57.1517 175.298 56.2839 174.414 54.5732L185.743 49.86C185.743 49.865 185.346 48.9123 185.346 48.9123ZM173.793 51.7552C173.703 48.4684 176.336 46.7976 178.218 46.7976C179.703 46.7976 180.94 47.5308 181.363 48.5981L173.793 51.7552ZM164.589 59.9996H168.309V35.0021H164.589V59.9996ZM158.479 45.4011H158.345C157.506 44.3986 155.911 43.4909 153.875 43.4909C149.648 43.4909 145.754 47.2265 145.754 52.0245C145.754 56.8026 149.628 60.4934 153.875 60.4934C155.886 60.4934 157.506 59.5807 158.345 58.5582H158.479V59.7802C158.479 63.027 156.751 64.7777 153.964 64.7777C151.684 64.7777 150.269 63.1318 149.692 61.7552L146.459 63.1118C147.388 65.3562 149.866 68.1343 153.959 68.1343C158.32 68.1343 162.016 65.5557 162.016 59.2664V43.9996H158.499V45.4011C158.504 45.4011 158.479 45.4011 158.479 45.4011ZM154.207 57.1567C151.64 57.1567 149.494 55.0021 149.494 52.0245C149.494 49.0221 151.64 46.8475 154.207 46.8475C156.751 46.8475 158.723 49.047 158.723 52.0245C158.747 55.0021 156.756 57.1567 154.207 57.1567ZM202.766 35.0021H193.87V59.9996H197.59V50.5333H202.771C206.888 50.5333 210.936 47.5358 210.936 42.7777C210.936 38.0196 206.903 35.0021 202.766 35.0021ZM202.875 47.042H197.585V38.4635H202.875C205.661 38.4635 207.236 40.7727 207.236 42.7527C207.236 44.7128 205.642 47.042 202.875 47.042ZM225.848 43.4659C223.146 43.4659 220.359 44.6679 219.207 47.2864L222.505 48.663C223.215 47.2864 224.516 46.8176 225.892 46.8176C227.82 46.8176 229.767 47.9747 229.811 50.0395V50.3039C229.146 49.9248 227.685 49.3462 225.937 49.3462C222.376 49.3462 218.765 51.3014 218.765 54.9672C218.765 58.3238 221.685 60.4784 224.939 60.4784C227.437 60.4784 228.813 59.3462 229.672 58.0345H229.806V59.9697H233.393V50.3936C233.393 45.9348 230.094 43.4659 225.848 43.4659ZM225.381 57.1567C224.164 57.1567 222.46 56.5582 222.46 55.0221C222.46 53.0869 224.586 52.3537 226.399 52.3537C228.038 52.3537 228.813 52.7078 229.787 53.1966C229.518 55.441 227.631 57.1368 225.381 57.1567ZM246.476 43.9996L242.204 54.8425H242.07L237.644 43.9996H233.641L240.282 59.1567L236.497 67.5807H240.371L250.589 43.9996H246.476ZM212.988 59.9996H216.708V35.0021H212.988V59.9996Z" fill="white"/>
<path fill-rule="evenodd" clip-rule="evenodd" d="M20.7823 15.0673C20.2061 15.6907 19.8733 16.6433 19.8733 17.8902V62.1147C19.8733 63.3615 20.2061 64.3142 20.8021 64.9127L20.9561 65.0473L45.6325 40.2693V39.7157L20.9362 14.9326L20.7823 15.0673Z" fill="url(#paint0_linear_468_13864)"/>
<path fill-rule="evenodd" clip-rule="evenodd" d="M53.8428 48.5535L45.6123 40.2892V39.7106L53.8428 31.4463L54.0216 31.556L63.7571 37.1121C66.5437 38.6882 66.5437 41.2917 63.7571 42.8877L54.0216 48.4438L53.8428 48.5535Z" fill="url(#paint1_linear_468_13864)"/>
<path fill-rule="evenodd" clip-rule="evenodd" d="M54.0219 48.4439L45.6126 40L20.7822 64.9327C21.6912 65.9102 23.2161 66.0199 24.9198 65.0673L54.0219 48.4439Z" fill="url(#paint2_linear_468_13864)"/>
<path fill-rule="evenodd" clip-rule="evenodd" d="M54.0219 31.5559L24.9198 14.9574C23.2161 13.9798 21.6862 14.1145 20.7822 15.0921L45.6126 39.9998L54.0219 31.5559Z" fill="url(#paint3_linear_468_13864)"/>
<path opacity="0.2" fill-rule="evenodd" clip-rule="evenodd" d="M53.8431 48.2646L24.9396 64.7534C23.3253 65.686 21.8848 65.6212 20.956 64.7733L20.802 64.9279L20.956 65.0626C21.8848 65.9055 23.3253 65.9753 24.9396 65.0426L54.0418 48.4442L53.8431 48.2646Z" fill="black"/>
<path opacity="0.12" fill-rule="evenodd" clip-rule="evenodd" d="M63.7572 42.5985L53.8181 48.2643L53.9969 48.4439L63.7324 42.8878C65.1281 42.0898 65.8136 41.0424 65.8136 40C65.7291 40.9576 65.0189 41.8653 63.7572 42.5985Z" fill="black"/>
<path opacity="0.25" fill-rule="evenodd" clip-rule="evenodd" d="M24.9198 15.2466L63.7574 37.4012C65.019 38.1144 65.7293 39.0471 65.8386 39.9997C65.8386 38.9573 65.1531 37.9099 63.7574 37.1119L24.9198 14.9573C22.1333 13.3563 19.8733 14.693 19.8733 17.89V18.1793C19.8733 14.9773 22.1333 13.6655 24.9198 15.2466Z" fill="white"/>
</g>
<defs>
<linearGradient id="paint0_linear_468_13864" x1="43.4191" y1="17.4131" x2="3.87028" y2="27.9077" gradientUnits="userSpaceOnUse">
<stop stop-color="#00A0FF"/>
<stop offset="0.00657" stop-color="#00A1FF"/>
<stop offset="0.2601" stop-color="#00BEFF"/>
<stop offset="0.5122" stop-color="#00D2FF"/>
<stop offset="0.7604" stop-color="#00DFFF"/>
<stop offset="1" stop-color="#00E3FF"/>
</linearGradient>
<linearGradient id="paint1_linear_468_13864" x1="67.391" y1="40" x2="19.1955" y2="40" gradientUnits="userSpaceOnUse">
<stop stop-color="#FFE000"/>
<stop offset="0.4087" stop-color="#FFBD00"/>
<stop offset="0.7754" stop-color="#FFA500"/>
<stop offset="1" stop-color="#FF9C00"/>
</linearGradient>
<linearGradient id="paint2_linear_468_13864" x1="49.4492" y1="44.5947" x2="17.5237" y2="98.1076" gradientUnits="userSpaceOnUse">
<stop stop-color="#FF3A44"/>
<stop offset="1" stop-color="#C31162"/>
</linearGradient>
<linearGradient id="paint3_linear_468_13864" x1="14.5297" y1="0.357366" x2="28.773" y2="24.2571" gradientUnits="userSpaceOnUse">
<stop stop-color="#32A071"/>
<stop offset="0.0685" stop-color="#2DA771"/>
<stop offset="0.4762" stop-color="#15CF74"/>
<stop offset="0.8009" stop-color="#06E775"/>
<stop offset="1" stop-color="#00F076"/>
</linearGradient>
<clipPath id="clip0_468_13864">
<rect width="270" height="80" rx="5" fill="white"/>
</clipPath>
</defs>
</svg>

<svg xmlns="http://www.w3.org/2000/svg" width="270" height="80" fill="none" viewBox="0 0 270 80"><g clip-path="url(#a)"><path fill="#000" fill-rule="evenodd" d="M259.996 80H10.004C4.49 80 0 75.491 0 70V10C0 4.489 4.49 0 10.004 0h249.992C265.505 0 270 4.489 270 10v60c0 5.491-4.495 10-10.004 10" clip-rule="evenodd"/><path fill="#a6a6a6" fill-rule="evenodd" d="M259.996 1.601c4.625 0 8.41 3.776 8.41 8.399v60c0 4.623-3.76 8.399-8.41 8.399H10.004c-4.625 0-8.41-3.776-8.41-8.399V10c0-4.623 3.76-8.399 8.41-8.399zm0-1.601H10.004C4.49 0 0 4.509 0 10v60c0 5.511 4.49 10 10.004 10h249.992C265.505 80 270 75.511 270 70V10c0-5.491-4.495-10-10.004-10" clip-rule="evenodd"/><path fill="#fff" d="M142.237 26.464c-1.803 0-3.323-.633-4.525-1.88a6.42 6.42 0 0 1-1.828-4.589c0-1.82.616-3.361 1.828-4.584 1.197-1.246 2.717-1.88 4.52-1.88 1.783 0 3.303.634 4.525 1.88 1.212 1.262 1.827 2.804 1.827 4.584-.019 1.825-.635 3.367-1.827 4.584-1.197 1.256-2.717 1.885-4.52 1.885m-53.65 0c-1.763 0-3.293-.623-4.544-1.855C82.8 23.382 82.17 21.83 82.17 20s.631-3.381 1.873-4.608c1.227-1.232 2.756-1.856 4.545-1.856.874 0 1.723.175 2.538.529.8.344 1.45.813 1.932 1.386l.12.145-1.347 1.327-.139-.165c-.76-.907-1.778-1.351-3.124-1.351-1.202 0-2.25.428-3.115 1.276-.869.853-1.31 1.97-1.31 3.322s.441 2.469 1.31 3.322c.865.848 1.913 1.277 3.115 1.277 1.281 0 2.36-.43 3.198-1.277.497-.499.805-1.197.914-2.08h-4.316v-1.865h6.17l.024.17c.045.313.09.638.09.937 0 1.72-.517 3.112-1.54 4.14-1.163 1.217-2.683 1.835-4.52 1.835m71.332-.264h-1.902l-5.826-9.362.049 1.686v7.67h-1.902V13.802h2.17l.06.094 5.479 8.818-.05-1.68V13.8h1.922zm-31.978 0h-1.927V15.666h-3.343V13.8h8.608v1.865h-3.343V26.2zm-6.839 0h-1.922V13.8h1.922zm-10.803 0h-1.923V15.666h-3.343V13.8h8.608v1.865H110.3zm-6.482-.02h-7.372V13.8h7.372v1.866h-5.444v3.401h4.912v1.846h-4.912v3.401h5.444zm35.305-2.878c.86.863 1.903 1.297 3.115 1.297 1.246 0 2.265-.424 3.114-1.297.844-.848 1.271-1.96 1.271-3.302s-.427-2.459-1.266-3.302c-.859-.863-1.907-1.296-3.114-1.296-1.247 0-2.265.424-3.11 1.296-.844.848-1.271 1.96-1.271 3.302s.422 2.459 1.261 3.302"/><path fill="#fff" fill-rule="evenodd" d="M135.705 43.51c-4.694 0-8.499 3.577-8.499 8.51 0 4.887 3.83 8.508 8.499 8.508 4.694 0 8.499-3.6 8.499-8.508 0-4.933-3.805-8.51-8.499-8.51m0 13.647c-2.568 0-4.778-2.135-4.778-5.157 0-3.068 2.215-5.157 4.778-5.157 2.568 0 4.778 2.09 4.778 5.157.005 3.042-2.21 5.157-4.778 5.157M117.163 43.51c-4.694 0-8.499 3.576-8.499 8.509 0 4.887 3.83 8.508 8.499 8.508 4.694 0 8.499-3.6 8.499-8.508 0-4.933-3.81-8.51-8.499-8.51m0 13.646c-2.568 0-4.778-2.135-4.778-5.157 0-3.068 2.215-5.157 4.778-5.157 2.568 0 4.778 2.09 4.778 5.157 0 3.042-2.21 5.157-4.778 5.157M95.099 46.109v3.601h8.608c-.263 2.02-.929 3.512-1.947 4.534-1.262 1.267-3.209 2.643-6.64 2.643-5.29 0-9.428-4.289-9.428-9.6 0-5.312 4.137-9.602 9.427-9.602 2.856 0 4.937 1.133 6.482 2.579l2.543-2.554c-2.145-2.065-5.002-3.645-9.005-3.645-7.257 0-13.346 5.935-13.346 13.201 0 7.287 6.084 13.202 13.346 13.202 3.919 0 6.86-1.286 9.184-3.71 2.369-2.38 3.119-5.736 3.119-8.444 0-.843-.064-1.601-.198-2.245h-12.15c.005-.005.005.04.005.04m90.247 2.803c-.71-1.91-2.856-5.421-7.257-5.421-4.361 0-7.987 3.446-7.987 8.509 0 4.778 3.586 8.508 8.409 8.508 3.875 0 6.13-2.379 7.059-3.775l-2.876-1.935c-.954 1.421-2.28 2.354-4.163 2.354-1.902 0-3.233-.868-4.117-2.579l11.329-4.713c0 .005-.397-.948-.397-.948m-11.553 2.843c-.09-3.287 2.543-4.957 4.425-4.957 1.485 0 2.722.733 3.145 1.8zM164.589 60h3.72V35.002h-3.72zm-6.11-14.599h-.134c-.839-1.002-2.434-1.91-4.47-1.91-4.227 0-8.121 3.736-8.121 8.534 0 4.778 3.874 8.468 8.121 8.468 2.011 0 3.631-.912 4.47-1.935h.134v1.222c0 3.247-1.728 4.998-4.515 4.998-2.28 0-3.695-1.646-4.272-3.023l-3.233 1.357c.929 2.244 3.407 5.022 7.5 5.022 4.361 0 8.057-2.578 8.057-8.868V44h-3.517v1.4zm-4.272 11.756c-2.567 0-4.713-2.155-4.713-5.132 0-3.003 2.146-5.178 4.713-5.178 2.544 0 4.516 2.2 4.516 5.178.024 2.977-1.967 5.132-4.516 5.132m48.559-22.155h-8.896V60h3.72v-9.467h5.181c4.117 0 8.165-2.997 8.165-7.755s-4.033-7.776-8.17-7.776m.109 12.04h-5.29v-8.578h5.29c2.786 0 4.361 2.309 4.361 4.289 0 1.96-1.594 4.289-4.361 4.289m22.973-3.576c-2.702 0-5.489 1.202-6.641 3.82l3.298 1.377c.71-1.377 2.011-1.845 3.387-1.845 1.928 0 3.875 1.157 3.919 3.221v.265c-.665-.38-2.126-.958-3.874-.958-3.561 0-7.172 1.955-7.172 5.621 0 3.357 2.92 5.511 6.174 5.511 2.498 0 3.874-1.132 4.733-2.443h.134v1.935h3.587v-9.576c0-4.46-3.299-6.928-7.545-6.928m-.467 13.69c-1.217 0-2.921-.598-2.921-2.134 0-1.935 2.126-2.668 3.939-2.668 1.639 0 2.414.354 3.388.843a4.486 4.486 0 0 1-4.406 3.96M246.476 44l-4.272 10.843h-.134L237.644 44h-4.003l6.641 15.157-3.785 8.424h3.874L250.589 44zm-33.488 16h3.72V35.002h-3.72z" clip-rule="evenodd"/><path fill="url(#b)" fill-rule="evenodd" d="M20.782 15.067c-.576.624-.909 1.576-.909 2.823v44.225c0 1.246.333 2.2.93 2.798l.153.134L45.633 40.27v-.553L20.936 14.933z" clip-rule="evenodd"/><path fill="url(#c)" fill-rule="evenodd" d="m53.843 48.554-8.23-8.265v-.578l8.23-8.265.179.11 9.735 5.556c2.787 1.576 2.787 4.18 0 5.776l-9.735 5.556z" clip-rule="evenodd"/><path fill="url(#d)" fill-rule="evenodd" d="M54.022 48.444 45.612 40l-24.83 24.933c.91.977 2.434 1.087 4.138.134z" clip-rule="evenodd"/><path fill="url(#e)" fill-rule="evenodd" d="M54.022 31.556 24.92 14.957c-1.704-.977-3.234-.843-4.138.135L45.612 40z" clip-rule="evenodd"/><path fill="#000" fill-rule="evenodd" d="M53.843 48.265 24.94 64.753c-1.615.933-3.055.868-3.984.02l-.154.155.154.135c.929.843 2.37.912 3.984-.02l29.102-16.599z" clip-rule="evenodd" opacity=".2"/><path fill="#000" fill-rule="evenodd" d="m63.757 42.599-9.939 5.665.179.18 9.735-5.556c1.396-.798 2.082-1.846 2.082-2.888-.085.958-.795 1.865-2.057 2.599" clip-rule="evenodd" opacity=".12"/><path fill="#fff" fill-rule="evenodd" d="M24.92 15.247 63.757 37.4c1.262.713 1.972 1.646 2.082 2.599 0-1.043-.686-2.09-2.082-2.888L24.92 14.957c-2.787-1.6-5.047-.264-5.047 2.933v.29c0-3.203 2.26-4.514 5.047-2.933" clip-rule="evenodd" opacity=".25"/></g><defs><linearGradient id="b" x1="43.419" x2="3.87" y1="17.413" y2="27.908" gradientUnits="userSpaceOnUse"><stop stop-color="#00a0ff"/><stop offset=".007" stop-color="#00a1ff"/><stop offset=".26" stop-color="#00beff"/><stop offset=".512" stop-color="#00d2ff"/><stop offset=".76" stop-color="#00dfff"/><stop offset="1" stop-color="#00e3ff"/></linearGradient><linearGradient id="c" x1="67.391" x2="19.195" y1="40" y2="40" gradientUnits="userSpaceOnUse"><stop stop-color="#ffe000"/><stop offset=".409" stop-color="#ffbd00"/><stop offset=".775" stop-color="orange"/><stop offset="1" stop-color="#ff9c00"/></linearGradient><linearGradient id="d" x1="49.449" x2="17.524" y1="44.595" y2="98.108" gradientUnits="userSpaceOnUse"><stop stop-color="#ff3a44"/><stop offset="1" stop-color="#c31162"/></linearGradient><linearGradient id="e" x1="14.53" x2="28.773" y1=".357" y2="24.257" gradientUnits="userSpaceOnUse"><stop stop-color="#32a071"/><stop offset=".069" stop-color="#2da771"/><stop offset=".476" stop-color="#15cf74"/><stop offset=".801" stop-color="#06e775"/><stop offset="1" stop-color="#00f076"/></linearGradient><clipPath id="a"><rect width="270" height="80" fill="#fff" rx="5"/></clipPath></defs></svg>
